packages/ffe-icons/icons/open/400/sm/sms.svg

<svg xmlns="http://www.w3.org/2000/svg" height="20" viewBox="0 -960 960 960" width="20"><path d="M323.789-516Q339-516 349.5-526.289q10.5-10.29 10.5-25.5Q360-567 349.711-577.5q-10.29-10.5-25.5-10.5Q309-588 298.5-577.711q-10.5 10.29-10.5 25.5Q288-537 298.289-526.5q10.29 10.5 25.5 10.5Zm156 0Q495-516 505.5-526.289q10.5-10.29 10.5-25.5Q516-567 505.711-577.5q-10.29-10.5-25.5-10.5Q465-588 454.5-577.711q-10.5 10.29-10.5 25.5Q444-537 454.289-526.5q10.29 10.5 25.5 10.5Zm156 0Q651-516 661.5-526.289q10.5-10.29 10.5-25.5Q672-567 661.711-577.5q-10.29-10.5-25.5-10.5Q621-588 610.5-577.711q-10.5 10.29-10.5 25.5Q600-537 610.289-526.5q10.29 10.5 25.5 10.5ZM240-240l-82.883 82.883Q140-140 118-149.406 96-158.812 96-183v-609q0-29.7 21.15-50.85Q138.3-864 168-864h624q29.7 0 50.85 21.15Q864-821.7 864-792v480q0 29.7-21.15 50.85Q821.7-240 792-240H240Zm-30-72h582v-480H168v522l42-42Zm-42 0v-480 480Z"/></svg>

<svg xmlns="http://www.w3.org/2000/svg" height="20" viewBox="0 -960 960 960" width="20"><path d="m240-240-82.88 82.88Q140-140 118-149.41q-22-9.4-22-33.59v-609q0-29.7 21.15-50.85Q138.3-864 168-864h624q29.7 0 50.85 21.15Q864-821.7 864-792v480q0 29.7-21.15 50.85Q821.7-240 792-240H240Zm-30-72h582v-480H168v522l42-42Zm-42 0v-480 480Zm155.79-204q15.21 0 25.71-10.29t10.5-25.5q0-15.21-10.29-25.71t-25.5-10.5q-15.21 0-25.71 10.29t-10.5 25.5q0 15.21 10.29 25.71t25.5 10.5Zm156 0q15.21 0 25.71-10.29t10.5-25.5q0-15.21-10.29-25.71t-25.5-10.5q-15.21 0-25.71 10.29t-10.5 25.5q0 15.21 10.29 25.71t25.5 10.5Zm156 0q15.21 0 25.71-10.29t10.5-25.5q0-15.21-10.29-25.71t-25.5-10.5q-15.21 0-25.71 10.29t-10.5 25.5q0 15.21 10.29 25.71t25.5 10.5Z"/></svg>
